X: 014
T: Kinvara Slide 
N: 110223
C: BB
R: slide
M: 12/8
Q: 1/8=400
L: 1/8
K: D
A|"D"ABA F2 D E2 D F2 D|"D"ABA DFA "G"B2 B dcB|
"D"ABA F2 D E2 D F2 D|"D"d2 F "A"EFE "D"D3-D2 :|
A|"Bm"B2 d dcd "A"c2 e ece|"Bm"f2 b a2 f "Em"e3-edB| 
"D"ABA F2 D E2 D F2 D|"D"d2 F "A"EFE "D"D3-D2 :|
%%%%%%%%%%%%%%%%%%%%%%%%%%%%%%%%%%%%%%%%%%%
